X:104
T:Haymaking song - Woodrich
C:Taken down from J. Woodrich, Dec. 27, 1890 by F.W.B.
%%VWML:SBG-1-1-517-0
F:http://www.vwml.org/record/SBG/1/1/517
Z:Original Sibleius Transcription by Martin and Shan Graebe
L:1/4
M:4/4
I:linebreak $
K:C
G | A G A/B/ c | G2 E G | A G E D | C2 G | A G A/B/ c |$ G G E G | A G E D/C/ | G3 G | A G A d | 
c B A G |$ G c E D | C B, A, G, | C D E c | A F E F | E C D C | C3  |] 



